iMoney3.0/img/icon-top-phone.svg

<?xml version="1.0" encoding="UTF-8" standalone="no"?>
<svg width="14px" height="14px" viewBox="0 0 14 14" version="1.1" xmlns="http://www.w3.org/2000/svg" xmlns:xlink="http://www.w3.org/1999/xlink" xmlns:sketch="http://www.bohemiancoding.com/sketch/ns">
    <!-- Generator: Sketch 3.2.2 (9983) - http://www.bohemiancoding.com/sketch -->
    <title>icon-top-phone</title>
    <desc>Created with Sketch.</desc>
    <defs></defs>
    <g id="Page-1" stroke="none" stroke-width="1" fill="none" fill-rule="evenodd" sketch:type="MSPage">
        <g id="icon-top-phone" sketch:type="MSArtboardGroup" fill="#2C96B9">
            <path d="M4.45850747,10.1629414 C3.54931772,9.25375168 2.98981633,8.44946844 0.996592649,10.0580349 C-0.996631033,11.6666014 0.541997774,12.7506353 1.41621869,13.6248562 C2.43031495,14.6389525 6.20694929,13.6598251 9.9486148,9.91815957 C13.6902803,6.2114629 14.6344389,2.39985971 13.6203426,1.38576345 C12.7461217,0.511542541 11.6970566,-1.02708627 10.0884901,1.00110625 C8.47992367,2.99432994 9.24923807,3.55383132 10.1584278,4.46302107 C10.7878669,5.09246013 9.45905109,6.70102661 8.09526647,8.06481123 C6.69651301,9.46356469 5.08794652,10.7923805 4.45850747,10.1629414 Z" id="📞" sketch:type="MSShapeGroup"></path>
        </g>
    </g>
</svg>

<svg width="14" height="14" viewBox="0 0 14 14" xmlns="http://www.w3.org/2000/svg"><title>icon-top-phone</title><desc>Created with Sketch.</desc><path d="M4.46 10.163c-.91-.91-1.47-1.714-3.463-.105-1.994 1.61-.455 2.693.42 3.567 1.013 1.014 4.79.035 8.532-3.707 3.74-3.707 4.684-7.518 3.67-8.532-.874-.874-1.923-2.413-3.532-.385-1.608 1.994-.84 2.554.07 3.463.63.63-.7 2.238-2.063 3.602-1.398 1.4-3.007 2.727-3.636 2.098z" fill="#2C96B9"/></svg>
